X:7
T:Devine's Lessons
C:Armand Aromin
M:6/8
L:1/8
H:3/31/04
K:G
dBG AGE | GED DEG | G2 BBAG | F2 A A2 E |
F G2 ddB | GAG EGE | DEF GFG | ABG G G2 :|
